X: 1
T:Man of Constant Sorrow
C:Traditional, Arr. Jay Buckey
S:jaybuckey.com, Tom Skinner
M:4/4
L:1/4
K:G
z g g/2B/2c/2B/2 | "G"g/2g/2g/2g/2 g/2g/2g/2g/2 |
g/2_b/2b/2b/2 b/2b/2b/2b/2 | _b/2g/2g/2g/2 g/2=f/2d/2c/2 |
_B/2G/2G/2G/2 G/2G/2G/2G/2 | "C"c/2c/2c/2c/2 c/2c/2c/2c/2 |
c/2c/2c/2c/2 c/2B/2c/2d/2 | "D"d/2d/2d/2d/2 d/2=f/2d/2c/2 |
d/2d/2d/2d/2 d/2c/2 _B | G "G"G G/2G/2G/2G/2 | G
G B c | "D"d d3- | d d c _B | "G"G4 | z4 |:
w:In con-stant sor-row_ all through his days.
"G"d4 | z2 c B | G4 | c c A B | "C"G/2c/2-c3 | z2 d =f | "D"d3 z |
w:1.~I am a man - of con-stant sor-row._ I've seen troub-
z c G _B | "G"G4 | z4 | d4 | z2 c B | G4 | c c A G |
w:le all my days. I bid fare-well - to old Ken-
"C"G/2c/2-c2 z | z d d =f | "D"d4 | z c G _B | "G"G4 |
w:tuck-y,_ the state where I was born and raised.
z d d =f | "D"d4 | z c G _B | "G"G4 :|
w:(The state where he was born and raised.)
%
W:2. For six long years I've been in trouble
W:No pleasure here on earth I've found
W:For in this world I'm bound to travel
W:I have no friends to help me now.
W:(He has no friends to help him now.)
W:
W:3. So fare you well my own true lover
W:I fear I never see you again
W:For I'm bound to ride the Northern railroad
W:Perhaps I'll die upon the train.
W:(Perhaps he'll die upon the train.)
W:
W:4. You may bury me in some deep valley
W:For many years where I may lay
W:Then you may learn to love another
W:While I am sleeping in my grave.
W:(While he is sleeping in his grave.)
W:
W:5. Maybe your friends think I'm just a stranger
W:My face you'll never see no more
W:But there is one promise that is given
W:I'll meet you on God's golden shore.
W:(He'll meet you on God's golden shore.)

%---------------------------------------------------------------------

